src/assets/duotone/Lamp1.svg

<svg width="24" height="24" viewBox="0 0 24 24"  xmlns="http://www.w3.org/2000/svg">
<path opacity="0.4" d="M20.7802 14.18V17.12C20.7802 18.22 19.8802 19.12 18.7802 19.12H5.22021C4.12021 19.12 3.22021 18.22 3.22021 17.12V14.18C3.22021 9.35998 7.12022 5.45998 11.9402 5.45998H12.0602C16.8802 5.44998 20.7802 9.35998 20.7802 14.18Z" />
<path d="M12.75 2.53027V5.49027C12.52 5.47027 12.29 5.46027 12.06 5.46027H11.94C11.71 5.46027 11.48 5.47027 11.25 5.49027V2.53027C11.25 2.12027 11.59 1.78027 12 1.78027C12.41 1.78027 12.75 2.12027 12.75 2.53027Z" />
<path d="M15.3202 19.1104C15.2002 20.8504 13.7602 22.2204 12.0002 22.2204C10.2402 22.2204 8.79018 20.8504 8.68018 19.1104H15.3202Z" />
</svg>

<?xml version="1.0" encoding="UTF-8"?>
<svg width="24" height="24" viewBox="0 0 24 24" xmlns="http://www.w3.org/2000/svg">
 <path d="m20.78 14.18v2.94c0 1.1-0.9 2-2 2h-13.56c-1.1 0-2-0.9-2-2v-2.94c0-4.82 3.9-8.72 8.72-8.72h0.12c4.82-0.01 8.72 3.9 8.72 8.72z" opacity=".4"/>
 <path d="m12.75 2.5303v2.96c-0.23-0.02-0.46-0.03-0.69-0.03h-0.12c-0.23 0-0.46 0.01-0.69 0.03v-2.96c0-0.41 0.34-0.75 0.75-0.75s0.75 0.34 0.75 0.75z"/>
 <path d="m15.32 19.11c-0.12 1.74-1.56 3.11-3.32 3.11s-3.21-1.37-3.32-3.11h6.64z"/>
</svg>
